src/assets/images/hoverHome.svg

<?xml version="1.0" encoding="utf-8"?>
<svg width="22" height="22" version="1.1" id="레이어_1" xmlns="http://www.w3.org/2000/svg" xmlns:xlink="http://www.w3.org/1999/xlink" x="0px"
	 y="0px" viewBox="0 0 128 128" style="enable-background:new 0 0 128 128;" xml:space="preserve">
<style type="text/css">
	.st0{fill:none;stroke:#221714;stroke-width:4;stroke-miterlimit:10;}
</style>
<path class="st0" d="M301.72,51.96"/>
<g>
	<circle cx="112.5" cy="16.81" r="7" fill="white"/>
</g>
<g>
	<path d="M125.44,47.88c-0.27-0.24-0.54-0.47-0.79-0.68L70.27,2.11c-1.81-1.5-4.05-2.2-6.27-2.11v0.01
		c-2.21-0.09-4.46,0.61-6.27,2.11L3.35,47.21c-0.25,0.21-0.52,0.44-0.79,0.68C0.94,49.33,0,51.39,0,53.56v63.03
		C0,122.89,5.11,128,11.42,128H34.3c6.31,0,11.42-5.11,11.42-11.42V86.85c0-0.28,0.02-0.55,0.03-0.83V85.1
		c0-10.17,8.31-17.71,18.15-18.15c9.22-0.41,17.15,7.61,18.06,16.47c0.21,1.12,0.34,2.26,0.34,3.42v29.73
		c0,6.31,5.11,11.42,11.42,11.42h22.88c6.31,0,11.42-5.11,11.42-11.42V53.55C128,51.38,127.06,49.32,125.44,47.88z" fill="white"/>
</g>
</svg>

<svg width="22" height="22" viewBox="0 0 128 128" fill="current" xmlns="http://www.w3.org/2000/svg">
<g clip-path="url(#clip0_38_3563)">
<path d="M112.5 23.81C116.366 23.81 119.5 20.676 119.5 16.81C119.5 12.944 116.366 9.81 112.5 9.81C108.634 9.81 105.5 12.944 105.5 16.81C105.5 20.676 108.634 23.81 112.5 23.81Z"/>
<path d="M125.44 47.88C125.17 47.64 124.9 47.41 124.65 47.2L70.27 2.11C68.46 0.609998 66.22 -0.0900024 64 -2.40188e-06V0.0099976C61.79 -0.0800024 59.54 0.619998 57.73 2.12L3.35 47.21C3.1 47.42 2.83 47.65 2.56 47.89C0.94 49.33 0 51.39 0 53.56V116.59C0 122.89 5.11 128 11.42 128H34.3C40.61 128 45.72 122.89 45.72 116.58V86.85C45.72 86.57 45.74 86.3 45.75 86.02V85.1C45.75 74.93 54.06 67.39 63.9 66.95C73.12 66.54 81.05 74.56 81.96 83.42C82.17 84.54 82.3 85.68 82.3 86.84V116.57C82.3 122.88 87.41 127.99 93.72 127.99H116.6C122.91 127.99 128.02 122.88 128.02 116.57V53.55C128 51.38 127.06 49.32 125.44 47.88Z"/>
</g>
</svg>
